!!!COM: Palestrina, Giovanni Perluigi da
!!!OPR: Missa Lauda Sion
!!!OMD: Benedictus
!!!OTL: Hosanna
**kern	**kern	**kern	**kern
*Ibass	*Itenor	*Icalto	*Icant
!Bassus	!Tenor	!Altus	!Cantus
*clefF4	*clefGv2	*clefG2	*clefG2
*k[]	*k[]	*k[]	*k[]
*G:mix	*G:mix	*G:mix	*G:mix
*M3/2	*M3/2	*M3/2	*M3/2
=35	=35	=35	=35
1G	1B	1d	1g
2G	2B	2d	2g
=36	=36	=36	=36
1F	1c	1f	1a
2C	2c	2e	2g
=37	=37	=37	=37
1G	2B	2d	1b
.	1G	1g	.
2E	.	.	2cc#
=38	=38	=38	=38
1.D	2A	2f	2.dd
.	2.d	2f	.
.	.	.	8cc
.	.	.	8b
.	.	2f	2a
.	8c	.	.
.	8B	.	.
=39	=39	=39	=39
1r	2A	2f	2.cc
.	1c	1e	.
.	.	.	4b
2r	.	.	2a
=40	=40	=40	=40
1r	2B	2d	1g
.	1A	2.c	.
2r	.	.	2f#
.	.	4d	.
=41	=41	=41	=41
1C	2G	1e	1.g
.	1c	.	.
2C	.	2e	.
=42	=42	=42	=42
1D	2A	2f	1r
.	2B	2d	.
2C	[2c	[2e	2r
=43	=43	=43	=43
1E	4c]	4e]	1r
.	4B	4d	.
.	2G	4B	.
.	.	4c	.
2F#	2A	[2d	2r
=44	=44	=44	=44
1G	2B	2d]	1g
.	2d	2B	.
2E	2e	[2c	2g
=45	=45	=45	=45
1F	2A	2c]	1a
.	2.d	2A	.
[2G	.	2r	2g
.	4c	.	.
=46	=46	=46	=46
4G]	4B	2d	1b
4F	4A	.	.
1E	1G	2e	.
.	.	2g	2cc#
=47	=47	=47	=47
2D	2A	2.f#	1dd
2D	2d	.	.
.	.	4e	.
2D	2d	2f#	2a
=48	=48	=48	=48
4C	1e	1g	1cc
4D	.	.	.
4E	.	.	.
4F	.	.	.
2G	2d	2g	2b
=49	=49	=49	=49
1A	2c	2e	2.a
.	2.e	2c	.
.	.	.	4g
[2B-	.	[2d	2f
.	4d	.	.
=50	=50	=50	=50
2B-]	1d	2d]	2g
1A	.	1e	1a
.	2c#	.	.
=51	=51	=51	=51
1D	1d	2.f#	2.a
.	.	4e	4g
2r	2r	2f#	2a
=52	=52	=52	=52
1G	1d	1.g	1.b
2E	2e	.	.
=53	=53	=53	=53
2.F	2c	1r	1r
.	2A	.	.
4D	.	.	.
4E	2c	2r	2r
4F	.	.	.
=54	=54	=54	=54
2.G	2B	1r	2r
.	1A	.	2r
8F	.	.	.
8E	.	.	.
2F#	.	2r	[2dd
=55	=55	=55	=55
2G	1G	1g	2dd]
2r	.	.	2b
2F	2r	2a	[2cc
=56	=56	=56	=56
2F	1r	2f	4cc]
.	.	.	4a
2G	.	2d	4b
.	.	.	4cc
2D	2r	2f	2dd
=57	=57	=57	=57
2E	1r	2e	2.cc
2F	.	1d	.
.	.	.	8b
.	.	.	8a
2G	2r	.	2b
=58	=58	=58	=58
1C	2r	2c	2.cc
.	2r	2e	.
.	.	.	4b
2r	[2d	2f#	2a
=59	=59	=59	=59
1G	2d]	2.g	1b
.	2B	.	.
.	.	4f	.
2A	[2c	2e	2r
=60	=60	=60	=60
2F	4c]	2A	1r
.	4A	.	.
2D	4B	1d	.
.	4c	.	.
2F	2d	.	2r
=61	=61	=61	=61
2E	1c	2e	2r
1D	.	1f	1dd
.	2B	.	.
=62	=62	=62	=62
2C	1c	2e	2ee
2C	.	2e	2cc
2D	2r	2f#	2a
=63	=63	=63	=63
1G	1d	1g	1b
2E	2e	2g	4cc
.	.	.	4b
=64	=64	=64	=64
1F	2c	2f	4a
.	.	.	4g
.	2A	2.f	1a
2F	2c	.	.
.	.	4e	.
=65	=65	=65	=65
2G	2B	4d	1g
.	.	4c	.
1D	1A	1d	.
.	.	.	2f#
=66	=66	=66	=66
1.GG	1.G	1.d	1.g
==	==	==	==
*-	*-	*-	*-
!!!CDT: 1525/^1526/-1594/2/2
!!!OCY: Italia
!!!AGN: Mass (Parody)
!!!AST: renaissance, vocal
!!!ASW: Motet 1563 (Palestrina)
!!!PWK: Masses, Book 4
!!!RNB: Cadence finals: D
!!!YOR: Le Opere Complete, v. 10, p. 1
!!!YOO: Rome, Italy: Fratelli Scalera
!!!END: 1992//
!!!EED: John Miller
!!!YEC: Copyright 2000, John Miller
!!!YEN: United States of America
!!!YEM: Rights to all derivative electronic formats reserved.
!!!YEM: Refer to licensing agreement for further details.
!!!YEM: This file must be accompanied by the licensing agreement.
!!!YEM: A copy of the licensing agreement may be found at http://www.music-cog.ohio-state.edu/HumdrumDatabases/Palestrina/license.txt
!!!EMD: converted to Humdrum by Bret Aarden
